svg/u2601.svg

<svg viewBox="0 0 128 128" xmlns="http://www.w3.org/2000/svg">
  <path d="M23.45,62.3c0.72-0.72-1.27-9.29,7.6-15.91s14.92-2.67,15.77-2.96c0.84-0.28,4.79-17.6,21.4-22.1 s33.93,3.94,38.01,18.02c3.73,12.87,0.84,21.54,1.27,22.1c0.42,0.56,8.45,0.28,13.09,7.74s2.96,12.11,2.96,12.11l-29.56,9.15h-47.3 c0,0-41.67-10.98-42.09-12.95c-0.42-1.97,0.53-8.37,7.32-12.25C17.82,61.88,22.18,63.57,23.45,62.3z" fill="#E4EAEE"/>
  <path d="M35.16,92.84c0,0-15.78,3.3-26.45-4.96C2.29,82.9,4.63,74.83,4.63,74.83s4.6,4.65,13.89,5.91 c9.29,1.27,19.71,0.84,19.71,0.84s2.6,4.44,12.39,6.48c12.27,2.55,18.74-3.73,18.74-3.73s3.36,4.02,15.19,4.3 c11.83,0.28,18.46-7.98,19.57-8.17c0.56-0.09,3.82,2.87,10.28,1.83c6.15-0.99,9.39-3.66,9.39-3.66s0.89,6.62-5.3,10.7 c-4.83,3.18-13.23,3.52-13.23,3.52s-1.28,4.91-7.05,8.48c-5.36,3.33-14.6,4.44-21.44,2.4c-8.59-2.56-10.72-6.47-10.72-6.47 s-6.4,3.75-16.4,2.48C40.2,98.56,35.16,92.84,35.16,92.84z" fill="#BACDD2"/>
</svg>

<svg viewBox="0 0 128 128" xmlns="http://www.w3.org/2000/svg">
  <defs/>
  <path d="M23.45,62.3 C24.17,61.58 22.18,53.01 31.05,46.39 C39.92,39.77 45.97,43.72 46.82,43.43 C47.66,43.15 51.61,25.83 68.22,21.33 C84.83,16.83 102.15,25.27 106.23,39.35 C109.96,52.22 107.07,60.89 107.5,61.45 C107.92,62.01 115.95,61.73 120.59,69.19 C125.23,76.65 123.55,81.3 123.55,81.3 L93.99,90.45 L46.69,90.45 C46.69,90.45 5.02,79.47 4.6,77.5 C4.18,75.53 5.13,69.13 11.92,65.25 C17.82,61.88 22.18,63.57 23.45,62.3 Z" fill="#E4EAEE"/>
  <path d="M35.16,92.84 C35.16,92.84 19.38,96.14 8.71,87.88 C2.29,82.9 4.63,74.83 4.63,74.83 C4.63,74.83 9.23,79.48 18.52,80.74 C27.81,82.01 38.23,81.58 38.23,81.58 C38.23,81.58 40.83,86.02 50.62,88.06 C62.89,90.61 69.36,84.33 69.36,84.33 C69.36,84.33 72.72,88.35 84.55,88.63 C96.38,88.91 103.01,80.65 104.12,80.46 C104.68,80.37 107.94,83.33 114.4,82.29 C120.55,81.3 123.79,78.63 123.79,78.63 C123.79,78.63 124.68,85.25 118.49,89.33 C113.66,92.51 105.26,92.85 105.26,92.85 C105.26,92.85 103.98,97.76 98.21,101.33 C92.85,104.66 83.61,105.77 76.77,103.73 C68.18,101.17 66.05,97.26 66.05,97.26 C66.05,97.26 59.65,101.01 49.65,99.74 C40.2,98.56 35.16,92.84 35.16,92.84 Z" fill="#BACDD2"/>
</svg>
